X:4
T: Der Vorwirt
N: Q0089C
O: Suedosteuropa, Jugoslawien, Gottschee, Handlern
R: Ballade, Mord, Grab, Auferstehen, Geist
M: 3/4
L: 1/8
K: G
D2 | G2B2A2 | G4D2 | G2A2Bc | d4
d2 | d2A2B2 | G4D2 | G2B2A2 | G4

@@@ Tune index: 1297
